X:1
T:Drag, Jesus, mig
T:(Salmer og Aandelige Sange, no.10)
T:Carl Nielsen (FS83/10)
T:H.A. Brorson (1694-1764)
T:Drag, Jesus, mig (Salmer og Aandelige Sange, no.10)
T:Copyright (c) 2007 by Choral Public Domain Library (http://www.cpdl.org). Edition may be freely distributed, duplicated, performed or recorded.
T:Copyright (c) 2007 by Choral Public Domain Library (http://www.cpdl.org). Edition may be freely distributed, duplicated, performed or recorded.
C:Carl Nielsen (FS83/10)
Z:H.A. Brorson (1694-1764)
Z:Copyright (c) 2007 by Choral Public Domain Library (http://www.cpdl.org).
Z:Edition may be freely distributed, duplicated, performed or recorded.
%%score [ 1 2 3 4 ]
L:1/8
M:4/4
K:C
V:1 treble nm="S." snm="S."
V:2 treble nm="A." snm="A."
V:3 treble-8 transpose=-12 nm="T." snm="T."
V:4 bass nm="B." snm="B."
V:1
 G2 | F2 D2 C2 D2 | E3 F G2 A2 | B2 c2 A2 G2 | ^F4 E2 z2 | B2 A2 G2 B2 | c2 d2 B4 | c2 G2 A2 G2 | %8
w: Drag,|Je- sus, mig dog|ef- ter dig, saa|føl- ger jeg med|Læng- sel,|did, hvor du, O|Je- sus, gik|ud fra Ver- dens|
 F4 !fermata!E2 |] %9
w: Træng- sel!|
V:2
 C2 | A,2 B,2 C2 G,2 | C2 C2 D2 E2 | D2 C2 C2 E2 | (E2 ^D2) B,2 z2 | =D2 D2 G2 F2 | E2 D2 E4 | %7
w: Drag,|Je- sus, mig dog|ef- ter dig, saa|føl- ger jeg med|Læng- * sel,|did, hvor du, O|Je- sus, gik|
 E2 C2 F2 E2 | D4 !fermata!G,2 |] %9
w: ud fra Ver- dens|Træng- sel!|
V:3
 E2 | F2 G2 E2 G2 | G2 A2 G2 E2 | F2 G2 A2 c2 | (c2 B2) G2 z2 | G2 A2 B2 d2 | G2 A2 (A2 ^G2) | %7
w: Drag,|Je- sus, mig dog|ef- ter dig, saa|føl- ger jeg med|Læng- * sel,|did, hvor du, O|Je- sus, gik _|
 A2 c2 c2 c2 | (c2 B2) !fermata!c2 |] %9
w: ud fra Ver- dens|Træng- * sel!|
V:4
 C,2 | D,2 G,,2 A,,2 B,,2 | C,2 A,,2 B,,2 C,2 | D,2 E,2 F,2 C,2 | (A,,2 B,,2) E,2 z2 | %5
w: Drag,|Je- sus, mig dog|ef- ter dig, saa|føl- ger jeg med|Læng- * sel,|
 G,2 F,2 E,2 D,2 | %6
w: did, hvor du, O|
 C,2"^1.2.3.4.5.""^Drag, Jesus, migdog efter dig,saa følger jeg med Længsel,did, hvor du, O Jesus, gikud fra Verdens Trængsel!Drag, Jesus, migdog efter dig,fra Verdens Myretue,at jeg ikke mere skalal den Jammer skue.Drag, Jesus, mig dog efter dig, med Zions Brudeskare, thi vi kunde ellers let vild i Verden fare.Drag, Jesus, migdog efter dig,til Himlens Frydebolig,Verden er for dine smaavildsom og urolig!Drag, Jesus, migdog efter dig,til Himlen op at fare,der at staa med Glædesraabi de frommes Skare!                     Hans Adolph Brorson, Troens Rare Klenodie (1739)" F,2 E,4 | %7
w: Je- sus, gik|
 A,2 E,2 F,2 C,2 | D,4 !fermata!C,2 |] %9
w: ud fra Ver- dens|Træng- sel!|

